X:1
T:Title
%%score { ( 1 4 ) | ( 2 3 ) }
L:1/8
M:4/4
K:Eb
V:1 treble nm="Grand Piano"
V:4 treble 
V:2 bass 
V:3 bass 
V:1
 z4 z2[Q:1/4=100] E>F | G2 G2 G2 G>A | [GB]2 [GB]2 [GB]4 | c e2 c [GB]2 G2 |[M:3/4] z2 z2 F2 | %5
[M:1/4] E>F |[M:4/4] G2 G2 G2 G>A | [GB]2 [GB]2 [GB]4 | c e2 c [GB]2 [EG]2 | [DF]4 E4 | %10
 B B2 G [GB]4 | c e2 c e2 c2 | [GB]2 [GB]>[Ac] [GB]2 [EG]2 |[M:3/4] [DF]6 |[M:1/4] [DB]>[DA] | %15
[M:4/4] G2 G>F E2 G>[B,FA] |[M:9/8] [EGB]2 c d [Ge]2- [Ge] [Ac]2 |[M:4/4] [GB]2 B>A G2 [DF]2 | %18
[M:3/4] E6 |] %19
V:2
 z4 z2 [E,G,]>[E,A,E] | z4 z2 E2 | [E,E]2 [E,E]2 [E,E]4 | %3
 [A,EA] [A,CA]2 [A,EA][K:bass] [E,E]2 [E,B,E]2 |[M:3/4] [B,D]4 [B,D]2 |[M:1/4] [G,B,]>[F,B,D] | %6
[M:4/4] z4 z2 E2 | [E,E]2 [E,E]2 [E,E]4 | [A,EA] [A,CA]2 [A,EA][K:bass] [E,E]2 [E,B,]2 | %9
 [B,,A,]4 [E,G,]4 | [E,G,E] [E,G,E]2 [E,B,E] [E,E]4 | [A,EA] [A,CA]2 [A,EA] [A,CA]2 [A,EA]2 | %12
 [E,E]2 [E,E]>[E,E] [E,E]2 [E,B,]2 |[M:3/4] [B,,B,]6 |[M:1/4] [B,,F,]>[B,,B,] | %15
[M:4/4] [E,B,E]2 [E,B,E]>[E,A,E] [E,G,]2 [E,B,E]>E, |[M:9/8] z2[K:treble] A- A[K:bass] z z z3 | %17
[M:4/4] [E,E]2[K:treble] [G,B,E]>[A,CF][K:bass] [B,E]2 [B,,A,]2 |[M:3/4] [E,G,]6 |] %19
V:3
 x8 | [E,B,E]2 [E,B,E]2 [E,B,E]2 [E,B,]->[E,B,F] | x8 | x4[K:bass] x4 |[M:3/4] x6 |[M:1/4] x2 | %6
[M:4/4] [E,B,E]2 [E,B,E]2 [E,B,E]2 [E,B,]->[E,B,F] | x8 | x4[K:bass] x4 | x8 | x8 | x8 | x8 | %13
[M:3/4] x6 |[M:1/4] x2 |[M:4/4] x8 | %16
[M:9/8] C,2[K:treble] [A,D] [F,B,][K:bass] [E,B,]2- [E,B,] [E,E]2 | %17
[M:4/4] x2[K:treble] x2[K:bass] x4 |[M:3/4] x6 |] %19
V:4
 x8 | x8 | x8 | x8 |[M:3/4] B4 z A, |[M:1/4] x2 |[M:4/4] x8 | x8 | x8 | x8 | x8 | x8 | x8 | %13
[M:3/4] x6 |[M:1/4] x2 |[M:4/4] x8 |[M:9/8] x9 |[M:4/4] x8 |[M:3/4] x6 |] %19

